Newaita-dark/apps/64/akregator.svg

<svg height="64pt" viewBox="0 0 64 64" width="64pt" xmlns="http://www.w3.org/2000/svg" xmlns:xlink="http://www.w3.org/1999/xlink"><linearGradient id="a" gradientUnits="userSpaceOnUse" x1="31.75304" x2="31.75304" y1="56.067872" y2="58.71396000006"><stop offset="0" stop-opacity=".27451"/><stop offset="1" stop-opacity="0"/></linearGradient><linearGradient id="b"><stop offset="0" stop-opacity=".313726"/><stop offset=".222222" stop-opacity=".27451"/><stop offset="1" stop-opacity="0"/></linearGradient><radialGradient id="c" cx="450.908936" cy="189.579361" gradientTransform="matrix(.00000035 -.156265 -.281277 -.0000002 106.24586 127.190665)" gradientUnits="userSpaceOnUse" r="21.166656" xlink:href="#b"/><radialGradient id="d" cx="450.908936" cy="189.579361" gradientTransform="matrix(-.00000035 .156265 .281277 .0000002 -42.409041 -15.054958)" gradientUnits="userSpaceOnUse" r="21.166656" xlink:href="#b"/><radialGradient id="e" cx="450.908936" cy="189.579361" gradientTransform="matrix(-.00000035 -.156265 .281277 -.0000002 -42.409041 127.190665)" gradientUnits="userSpaceOnUse" r="21.166656" xlink:href="#b"/><radialGradient id="f" cx="450.908936" cy="189.579361" gradientTransform="matrix(.00000035 .156265 -.281277 .0000002 106.245857 -15.054959)" gradientUnits="userSpaceOnUse" r="21.166656" xlink:href="#b"/><linearGradient id="g" gradientUnits="userSpaceOnUse" x1="31.753048" x2="31.753048" y1="56.067868" y2="5.79220799994"><stop offset="0" stop-color="#ff7043"/><stop offset="1" stop-color="#ff8a65"/></linearGradient><linearGradient id="h" gradientUnits="userSpaceOnUse" x1="34.399144" x2="34.399144" y1="56.06789790428" y2="5.792224912"><stop offset="0" stop-color="#bdbdbd"/><stop offset="1" stop-color="#e0e0e0"/></linearGradient><path d="m10.253906 56.066406h43.328125v2.648438h-43.328125zm0 0" fill="url(#a)"/><path d="m53.582031 56.066406h5.292969v-2.644531h-5.292969zm0 0" fill="url(#c)"/><path d="m10.253906 56.066406h-5.292968v2.648438h5.292968zm0 0" fill="url(#d)"/><path d="m10.253906 56.066406h-5.292968v-2.644531h5.292968zm0 0" fill="url(#e)"/><path d="m53.582031 56.066406h5.292969v2.648438h-5.292969zm0 0" fill="url(#f)"/><path d="m7.277344 5.792969h48.953125c1.09375 0 1.984375.886719 1.984375 1.984375v46.304687c0 1.097657-.890625 1.984375-1.984375 1.984375h-48.953125c-1.097656 0-1.984375-.886718-1.984375-1.984375v-46.304687c0-1.097656.886719-1.984375 1.984375-1.984375zm0 0" fill="url(#g)"/><path d="m7.277344 5.792969c-1.101563 0-1.984375.882812-1.984375 1.984375v.332031c0-1.101563.882812-1.988281 1.984375-1.988281h48.953125c1.097656 0 1.984375.886718 1.984375 1.988281v-.332031c0-1.101563-.886719-1.984375-1.984375-1.984375zm0 0" fill="#fff" fill-opacity=".392157"/><path d="m7.277344 56.066406c-1.101563 0-1.984375-.882812-1.984375-1.984375v-.328125c0 1.097656.882812 1.984375 1.984375 1.984375h48.953125c1.097656 0 1.984375-.886719 1.984375-1.984375v.328125c0 1.101563-.886719 1.984375-1.984375 1.984375zm0 0" fill="#030303" fill-opacity=".235294"/><path d="m7.277344 5.605469c-1.199219 0-2.171875.972656-2.171875 2.171875v46.304687c0 1.203125.972656 2.171875 2.171875 2.171875h48.953125c1.199219 0 2.171875-.96875 2.171875-2.171875v-46.304687c0-1.199219-.972656-2.171875-2.171875-2.171875zm0 .375h48.953125c.996093 0 1.796875.796875 1.796875 1.796875v46.304687c0 1-.800782 1.796875-1.796875 1.796875h-48.953125c-1 0-1.796875-.796875-1.796875-1.796875v-46.304687c0-1 .796875-1.796875 1.796875-1.796875zm0 0" fill="#212121"/><path d="m10.585938 13.730469c-.734376 0-1.324219.589843-1.324219 1.324219v2.644531c0 .734375.589843 1.324219 1.324219 1.324219 17.589843 0 31.75 14.160156 31.75 31.753906 0 .730468.589843 1.320312 1.324218 1.320312h2.644532c.734374 0 1.324218-.589844 1.324218-1.320312 0-20.523438-16.519531-37.046875-37.042968-37.046875zm0 10.585937c-.734376 0-1.324219.589844-1.324219 1.320313v2.648437c0 .730469.589843 1.320313 1.324219 1.320313 11.726562 0 21.167968 9.441406 21.167968 21.171875 0 .730468.589844 1.320312 1.320313 1.320312h2.648437c.734375 0 1.324219-.589844 1.324219-1.320312 0-14.660156-11.804687-26.460938-26.460937-26.460938zm5.953124 13.230469c-4.03125 0-7.277343 3.242187-7.277343 7.273437s3.246093 7.277344 7.277343 7.277344 7.277344-3.246094 7.277344-7.277344-3.246094-7.273437-7.277344-7.273437zm0 0" fill="url(#h)"/><path d="m10.585938 13.730469c-.734376 0-1.324219.589843-1.324219 1.324219v.992187c0-.734375.589843-1.324219 1.324219-1.324219 20.242187 0 36.59375 16.078125 37.035156 36.210938.003906-.050782.007812-.105469.007812-.15625 0-20.523438-16.519531-37.046875-37.042968-37.046875zm0 10.585937c-.734376 0-1.324219.589844-1.324219 1.320313v.992187c0-.730468.589843-1.320312 1.324219-1.320312 14.386718 0 26.019531 11.367187 26.445312 25.648437.007812-.058593.015625-.121093.015625-.179687 0-14.660156-11.804687-26.460938-26.460937-26.460938zm5.953124 13.230469c-4.03125 0-7.277343 3.242187-7.277343 7.273437 0 .167969.003906.335938.015625.5.253906-3.800781 3.394531-6.78125 7.261718-6.78125 3.863282 0 7.003907 2.980469 7.257813 6.78125.011719-.164062.019531-.332031.019531-.5 0-4.03125-3.246094-7.273437-7.277344-7.273437zm0 0" fill="#fff"/><path d="m9.261719 17.699219v1.324219c0 .730468.589843 1.320312 1.324219 1.320312 17.589843 0 31.75 14.164062 31.75 31.753906 0 .734375.589843 1.324219 1.324218 1.324219h2.644532c.734374 0 1.324218-.589844 1.324218-1.324219 0-.371094-.003906-.742187-.015625-1.109375-.101562.628907-.644531 1.109375-1.308593 1.109375h-2.644532c-.734375 0-1.324218-.589844-1.324218-1.320312 0-17.59375-14.160157-31.753906-31.75-31.753906-.734376 0-1.324219-.589844-1.324219-1.324219zm0 10.585937v1.320313c0 .734375.589843 1.324219 1.324219 1.324219 11.726562 0 21.167968 9.441406 21.167968 21.167968 0 .734375.589844 1.324219 1.320313 1.324219h2.648437c.734375 0 1.324219-.589844 1.324219-1.324219 0-.363281-.007813-.722656-.023437-1.082031-.113282.617187-.648438 1.082031-1.300782 1.082031h-2.648437c-.730469 0-1.320313-.589844-1.320313-1.320312 0-11.730469-9.441406-21.171875-21.167968-21.171875-.734376 0-1.324219-.589844-1.324219-1.320313zm.03125 17.199219c-.019531.21875-.03125.4375-.03125.660156 0 4.03125 3.246093 7.277344 7.277343 7.277344s7.277344-3.246094 7.277344-7.277344c0-.222656-.011718-.441406-.03125-.660156-.332031 3.71875-3.4375 6.613281-7.246094 6.613281-3.808593 0-6.914062-2.894531-7.246093-6.613281zm0 0" fill-opacity=".235294"/><path d="m320.048194 415.11786c-22.202605 0-40.035549 17.832944-40.035549 40.035549v79.952999c0 22.202606 17.832944 40.035549 40.035549 40.035549 531.799637 0 959.908384 428.108747 959.908384 960.026483 0 22.084506 17.832943 39.91745 40.035549 39.91745h79.952999c22.202605 0 40.035549-17.832944 40.035549-39.91745 0-620.49196-499.440521-1120.05058-1119.932481-1120.05058zm0 320.048194c-22.202605 0-40.035549 17.832944-40.035549 39.91745v80.071098c0 22.084507 17.832944 39.91745 40.035549 39.91745 354.533091 0 639.978289 285.445198 639.978289 640.096388 0 22.084506 17.832943 39.91745 39.91745 39.91745h80.071098c22.202605 0 40.035549-17.832944 40.035549-39.91745 0-443.225414-356.895071-800.002386-800.002386-800.002386zm179.982822 400.001193c-121.878132 0-220.018371 98.022141-220.018371 219.900272 0 121.878132 98.140239 220.018371 220.018371 220.018371 121.878131 0 220.018371-98.140239 220.018371-220.018371 0-121.878131-98.14024-219.900272-220.018371-219.900272zm0 0" fill="none" stroke="#212121" stroke-linecap="round" stroke-linejoin="round" stroke-width="11.338583" transform="scale(.0330761)"/></svg>

<?xml version="1.0" encoding="UTF-8"?>
<svg xmlns="http://www.w3.org/2000/svg" xmlns:xlink="http://www.w3.org/1999/xlink" width="64pt" height="64pt" viewBox="0 0 64 64" version="1.1">
<defs>
<linearGradient id="linear0" gradientUnits="userSpaceOnUse" x1="254" y1="233.5" x2="254" y2="254.666672" gradientTransform="matrix(0.125012,0,0,0.125012,-0.00000763012,26.87757)">
<stop offset="0" style="stop-color:rgb(0%,0%,0%);stop-opacity:0.27451;"/>
<stop offset="1" style="stop-color:rgb(0%,0%,0%);stop-opacity:0;"/>
</linearGradient>
<radialGradient id="radial0" gradientUnits="userSpaceOnUse" cx="450.908936" cy="189.579361" fx="450.908936" fy="189.579361" r="21.166656" gradientTransform="matrix(0.000000348341,-0.156265,-0.281277,-0.000000203077,106.24586,127.190665)">
<stop offset="0" style="stop-color:rgb(0%,0%,0%);stop-opacity:0.313726;"/>
<stop offset="0.222222" style="stop-color:rgb(0%,0%,0%);stop-opacity:0.27451;"/>
<stop offset="1" style="stop-color:rgb(0%,0%,0%);stop-opacity:0;"/>
</radialGradient>
<radialGradient id="radial1" gradientUnits="userSpaceOnUse" cx="450.908936" cy="189.579361" fx="450.908936" fy="189.579361" r="21.166656" gradientTransform="matrix(-0.000000348341,0.156265,0.281277,0.000000203077,-42.409041,-15.054958)">
<stop offset="0" style="stop-color:rgb(0%,0%,0%);stop-opacity:0.313726;"/>
<stop offset="0.222222" style="stop-color:rgb(0%,0%,0%);stop-opacity:0.27451;"/>
<stop offset="1" style="stop-color:rgb(0%,0%,0%);stop-opacity:0;"/>
</radialGradient>
<radialGradient id="radial2" gradientUnits="userSpaceOnUse" cx="450.908936" cy="189.579361" fx="450.908936" fy="189.579361" r="21.166656" gradientTransform="matrix(-0.000000348341,-0.156265,0.281277,-0.000000203077,-42.409041,127.190665)">
<stop offset="0" style="stop-color:rgb(0%,0%,0%);stop-opacity:0.313726;"/>
<stop offset="0.222222" style="stop-color:rgb(0%,0%,0%);stop-opacity:0.27451;"/>
<stop offset="1" style="stop-color:rgb(0%,0%,0%);stop-opacity:0;"/>
</radialGradient>
<radialGradient id="radial3" gradientUnits="userSpaceOnUse" cx="450.908936" cy="189.579361" fx="450.908936" fy="189.579361" r="21.166656" gradientTransform="matrix(0.000000348341,0.156265,-0.281277,0.000000203077,106.245857,-15.054959)">
<stop offset="0" style="stop-color:rgb(0%,0%,0%);stop-opacity:0.313726;"/>
<stop offset="0.222222" style="stop-color:rgb(0%,0%,0%);stop-opacity:0.27451;"/>
<stop offset="1" style="stop-color:rgb(0%,0%,0%);stop-opacity:0;"/>
</radialGradient>
<linearGradient id="linear1" gradientUnits="userSpaceOnUse" x1="254" y1="233.5" x2="254" y2="-168.666672" gradientTransform="matrix(0.125012,0,0,0.125012,0,26.877566)">
<stop offset="0" style="stop-color:rgb(100%,43.921569%,26.274511%);stop-opacity:1;"/>
<stop offset="1" style="stop-color:rgb(100%,54.11765%,39.607844%);stop-opacity:1;"/>
</linearGradient>
<linearGradient id="linear2" gradientUnits="userSpaceOnUse" x1="1040" y1="1695.118164" x2="1040" y2="175.118134" gradientTransform="matrix(0.0330761,0,0,0.0330761,0,0)">
<stop offset="0" style="stop-color:rgb(74.117649%,74.117649%,74.117649%);stop-opacity:1;"/>
<stop offset="1" style="stop-color:rgb(87.843138%,87.843138%,87.843138%);stop-opacity:1;"/>
</linearGradient>
</defs>
<g id="surface1">
<path style=" stroke:none;fill-rule:nonzero;fill:url(#linear0);" d="M 10.253906 56.066406 L 53.582031 56.066406 L 53.582031 58.714844 L 10.253906 58.714844 Z M 10.253906 56.066406 "/>
<path style=" stroke:none;fill-rule:nonzero;fill:url(#radial0);" d="M 53.582031 56.066406 L 58.875 56.066406 L 58.875 53.421875 L 53.582031 53.421875 Z M 53.582031 56.066406 "/>
<path style=" stroke:none;fill-rule:nonzero;fill:url(#radial1);" d="M 10.253906 56.066406 L 4.960938 56.066406 L 4.960938 58.714844 L 10.253906 58.714844 Z M 10.253906 56.066406 "/>
<path style=" stroke:none;fill-rule:nonzero;fill:url(#radial2);" d="M 10.253906 56.066406 L 4.960938 56.066406 L 4.960938 53.421875 L 10.253906 53.421875 Z M 10.253906 56.066406 "/>
<path style=" stroke:none;fill-rule:nonzero;fill:url(#radial3);" d="M 53.582031 56.066406 L 58.875 56.066406 L 58.875 58.714844 L 53.582031 58.714844 Z M 53.582031 56.066406 "/>
<path style=" stroke:none;fill-rule:nonzero;fill:url(#linear1);" d="M 7.277344 5.792969 L 56.230469 5.792969 C 57.324219 5.792969 58.214844 6.679688 58.214844 7.777344 L 58.214844 54.082031 C 58.214844 55.179688 57.324219 56.066406 56.230469 56.066406 L 7.277344 56.066406 C 6.179688 56.066406 5.292969 55.179688 5.292969 54.082031 L 5.292969 7.777344 C 5.292969 6.679688 6.179688 5.792969 7.277344 5.792969 Z M 7.277344 5.792969 "/>
<path style=" stroke:none;fill-rule:nonzero;fill:rgb(100%,100%,100%);fill-opacity:0.392157;" d="M 7.277344 5.792969 C 6.175781 5.792969 5.292969 6.675781 5.292969 7.777344 L 5.292969 8.109375 C 5.292969 7.007812 6.175781 6.121094 7.277344 6.121094 L 56.230469 6.121094 C 57.328125 6.121094 58.214844 7.007812 58.214844 8.109375 L 58.214844 7.777344 C 58.214844 6.675781 57.328125 5.792969 56.230469 5.792969 Z M 7.277344 5.792969 "/>
<path style=" stroke:none;fill-rule:nonzero;fill:rgb(1.176471%,1.176471%,1.176471%);fill-opacity:0.235294;" d="M 7.277344 56.066406 C 6.175781 56.066406 5.292969 55.183594 5.292969 54.082031 L 5.292969 53.753906 C 5.292969 54.851562 6.175781 55.738281 7.277344 55.738281 L 56.230469 55.738281 C 57.328125 55.738281 58.214844 54.851562 58.214844 53.753906 L 58.214844 54.082031 C 58.214844 55.183594 57.328125 56.066406 56.230469 56.066406 Z M 7.277344 56.066406 "/>
<path style=" stroke:none;fill-rule:nonzero;fill:rgb(12.941177%,12.941177%,12.941177%);fill-opacity:1;" d="M 7.277344 5.605469 C 6.078125 5.605469 5.105469 6.578125 5.105469 7.777344 L 5.105469 54.082031 C 5.105469 55.285156 6.078125 56.253906 7.277344 56.253906 L 56.230469 56.253906 C 57.429688 56.253906 58.402344 55.285156 58.402344 54.082031 L 58.402344 7.777344 C 58.402344 6.578125 57.429688 5.605469 56.230469 5.605469 Z M 7.277344 5.980469 L 56.230469 5.980469 C 57.226562 5.980469 58.027344 6.777344 58.027344 7.777344 L 58.027344 54.082031 C 58.027344 55.082031 57.226562 55.878906 56.230469 55.878906 L 7.277344 55.878906 C 6.277344 55.878906 5.480469 55.082031 5.480469 54.082031 L 5.480469 7.777344 C 5.480469 6.777344 6.277344 5.980469 7.277344 5.980469 Z M 7.277344 5.980469 "/>
<path style=" stroke:none;fill-rule:nonzero;fill:url(#linear2);" d="M 10.585938 13.730469 C 9.851562 13.730469 9.261719 14.320312 9.261719 15.054688 L 9.261719 17.699219 C 9.261719 18.433594 9.851562 19.023438 10.585938 19.023438 C 28.175781 19.023438 42.335938 33.183594 42.335938 50.777344 C 42.335938 51.507812 42.925781 52.097656 43.660156 52.097656 L 46.304688 52.097656 C 47.039062 52.097656 47.628906 51.507812 47.628906 50.777344 C 47.628906 30.253906 31.109375 13.730469 10.585938 13.730469 Z M 10.585938 24.316406 C 9.851562 24.316406 9.261719 24.90625 9.261719 25.636719 L 9.261719 28.285156 C 9.261719 29.015625 9.851562 29.605469 10.585938 29.605469 C 22.3125 29.605469 31.753906 39.046875 31.753906 50.777344 C 31.753906 51.507812 32.34375 52.097656 33.074219 52.097656 L 35.722656 52.097656 C 36.457031 52.097656 37.046875 51.507812 37.046875 50.777344 C 37.046875 36.117188 25.242188 24.316406 10.585938 24.316406 Z M 16.539062 37.546875 C 12.507812 37.546875 9.261719 40.789062 9.261719 44.820312 C 9.261719 48.851562 12.507812 52.097656 16.539062 52.097656 C 20.570312 52.097656 23.816406 48.851562 23.816406 44.820312 C 23.816406 40.789062 20.570312 37.546875 16.539062 37.546875 Z M 16.539062 37.546875 "/>
<path style=" stroke:none;fill-rule:nonzero;fill:rgb(100%,100%,100%);fill-opacity:1;" d="M 10.585938 13.730469 C 9.851562 13.730469 9.261719 14.320312 9.261719 15.054688 L 9.261719 16.046875 C 9.261719 15.3125 9.851562 14.722656 10.585938 14.722656 C 30.828125 14.722656 47.179688 30.800781 47.621094 50.933594 C 47.625 50.882812 47.628906 50.828125 47.628906 50.777344 C 47.628906 30.253906 31.109375 13.730469 10.585938 13.730469 Z M 10.585938 24.316406 C 9.851562 24.316406 9.261719 24.90625 9.261719 25.636719 L 9.261719 26.628906 C 9.261719 25.898438 9.851562 25.308594 10.585938 25.308594 C 24.972656 25.308594 36.605469 36.675781 37.03125 50.957031 C 37.039062 50.898438 37.046875 50.835938 37.046875 50.777344 C 37.046875 36.117188 25.242188 24.316406 10.585938 24.316406 Z M 16.539062 37.546875 C 12.507812 37.546875 9.261719 40.789062 9.261719 44.820312 C 9.261719 44.988281 9.265625 45.15625 9.277344 45.320312 C 9.53125 41.519531 12.671875 38.539062 16.539062 38.539062 C 20.402344 38.539062 23.542969 41.519531 23.796875 45.320312 C 23.808594 45.15625 23.816406 44.988281 23.816406 44.820312 C 23.816406 40.789062 20.570312 37.546875 16.539062 37.546875 Z M 16.539062 37.546875 "/>
<path style=" stroke:none;fill-rule:nonzero;fill:rgb(0%,0%,0%);fill-opacity:0.235294;" d="M 9.261719 17.699219 L 9.261719 19.023438 C 9.261719 19.753906 9.851562 20.34375 10.585938 20.34375 C 28.175781 20.34375 42.335938 34.507812 42.335938 52.097656 C 42.335938 52.832031 42.925781 53.421875 43.660156 53.421875 L 46.304688 53.421875 C 47.039062 53.421875 47.628906 52.832031 47.628906 52.097656 C 47.628906 51.726562 47.625 51.355469 47.613281 50.988281 C 47.511719 51.617188 46.96875 52.097656 46.304688 52.097656 L 43.660156 52.097656 C 42.925781 52.097656 42.335938 51.507812 42.335938 50.777344 C 42.335938 33.183594 28.175781 19.023438 10.585938 19.023438 C 9.851562 19.023438 9.261719 18.433594 9.261719 17.699219 Z M 9.261719 28.285156 L 9.261719 29.605469 C 9.261719 30.339844 9.851562 30.929688 10.585938 30.929688 C 22.3125 30.929688 31.753906 40.371094 31.753906 52.097656 C 31.753906 52.832031 32.34375 53.421875 33.074219 53.421875 L 35.722656 53.421875 C 36.457031 53.421875 37.046875 52.832031 37.046875 52.097656 C 37.046875 51.734375 37.039062 51.375 37.023438 51.015625 C 36.910156 51.632812 36.375 52.097656 35.722656 52.097656 L 33.074219 52.097656 C 32.34375 52.097656 31.753906 51.507812 31.753906 50.777344 C 31.753906 39.046875 22.3125 29.605469 10.585938 29.605469 C 9.851562 29.605469 9.261719 29.015625 9.261719 28.285156 Z M 9.292969 45.484375 C 9.273438 45.703125 9.261719 45.921875 9.261719 46.144531 C 9.261719 50.175781 12.507812 53.421875 16.539062 53.421875 C 20.570312 53.421875 23.816406 50.175781 23.816406 46.144531 C 23.816406 45.921875 23.804688 45.703125 23.785156 45.484375 C 23.453125 49.203125 20.347656 52.097656 16.539062 52.097656 C 12.730469 52.097656 9.625 49.203125 9.292969 45.484375 Z M 9.292969 45.484375 "/>
<path style="fill:none;stroke-width:11.338583;stroke-linecap:round;stroke-linejoin:round;stroke:rgb(12.941177%,12.941177%,12.941177%);stroke-opacity:1;stroke-miterlimit:4;" d="M 320.048194 415.11786 C 297.845589 415.11786 280.012645 432.950804 280.012645 455.153409 L 280.012645 535.106408 C 280.012645 557.309014 297.845589 575.141957 320.048194 575.141957 C 851.847831 575.141957 1279.956578 1003.250704 1279.956578 1535.16844 C 1279.956578 1557.252946 1297.789521 1575.08589 1319.992127 1575.08589 L 1399.945126 1575.08589 C 1422.147731 1575.08589 1439.980675 1557.252946 1439.980675 1535.16844 C 1439.980675 914.67648 940.540154 415.11786 320.048194 415.11786 Z M 320.048194 735.166054 C 297.845589 735.166054 280.012645 752.998998 280.012645 775.083504 L 280.012645 855.154602 C 280.012645 877.239109 297.845589 895.072052 320.048194 895.072052 C 674.581285 895.072052 960.026483 1180.51725 960.026483 1535.16844 C 960.026483 1557.252946 977.859426 1575.08589 999.943933 1575.08589 L 1080.015031 1575.08589 C 1102.217636 1575.08589 1120.05058 1557.252946 1120.05058 1535.16844 C 1120.05058 1091.943026 763.155509 735.166054 320.048194 735.166054 Z M 500.031016 1135.167247 C 378.152884 1135.167247 280.012645 1233.189388 280.012645 1355.067519 C 280.012645 1476.945651 378.152884 1575.08589 500.031016 1575.08589 C 621.909147 1575.08589 720.049387 1476.945651 720.049387 1355.067519 C 720.049387 1233.189388 621.909147 1135.167247 500.031016 1135.167247 Z M 500.031016 1135.167247 " transform="matrix(0.0330761,0,0,0.0330761,0,0)"/>
</g>
</svg>
